flaticon/interaction/list-13.svg

<svg xmlns="http://www.w3.org/2000/svg" width="32" height="32" viewBox="0 0 24 24">
    <path d="M12.84375 24L22.949219 24 22.949219 13.894531 12.84375 13.894531zM13.683594 14.738281L22.105469 14.738281 22.105469 23.15625 18.316406 23.15625 18.316406 17.859375 20.125 19.667969 20.71875 19.070312 17.894531 16.246094 15.070312 19.070312 15.667969 19.667969 17.472656 17.859375 17.472656 23.15625 13.683594 23.15625zM12 5.894531L19.578125 5.894531C19.8125 5.894531 20 5.707031 20 5.472656 20 5.242188 19.8125 5.050781 19.578125 5.050781L12 5.050781C11.769531 5.050781 11.578125 5.242188 11.578125 5.472656 11.578125 5.707031 11.769531 5.894531 12 5.894531zM20 11.367188C20 11.136719 19.8125 10.949219 19.578125 10.949219L12 10.949219C11.769531 10.949219 11.578125 11.136719 11.578125 11.367188 11.578125 11.601562 11.769531 11.789062 12 11.789062L19.578125 11.789062C19.8125 11.789062 20 11.601562 20 11.367188zM9.296875 3.050781C9.121094 2.898438 8.855469 2.917969 8.703125 3.09375L6.074219 6.164062 4.464844 4.957031C4.277344 4.816406 4.011719 4.855469 3.875 5.039062 3.734375 5.226562 3.773438 5.488281 3.957031 5.628906L5.882812 7.074219C5.957031 7.128906 6.046875 7.15625 6.136719 7.15625 6.253906 7.15625 6.371094 7.105469 6.457031 7.011719L9.34375 3.640625C9.492188 3.464844 9.472656 3.199219 9.296875 3.050781zM9.296875 8.945312C9.121094 8.792969 8.855469 8.8125 8.703125 8.988281L6.074219 12.058594 4.464844 10.851562C4.277344 10.710938 4.011719 10.75 3.875 10.933594 3.734375 11.121094 3.773438 11.386719 3.957031 11.523438L5.882812 12.96875C5.957031 13.023438 6.046875 13.050781 6.136719 13.050781 6.253906 13.050781 6.371094 13.003906 6.457031 12.90625L9.34375 9.535156C9.492188 9.359375 9.472656 9.09375 9.296875 8.945312zM8.703125 15.304688L6.070312 18.375 4.464844 17.167969C4.277344 17.027344 4.011719 17.066406 3.875 17.25 3.734375 17.4375 3.773438 17.699219 3.957031 17.839844L5.882812 19.285156C5.957031 19.339844 6.046875 19.367188 6.136719 19.367188 6.253906 19.367188 6.371094 19.316406 6.457031 19.21875L9.34375 15.851562C9.492188 15.675781 9.472656 15.410156 9.296875 15.257812 9.121094 15.109375 8.855469 15.128906 8.703125 15.304688zM8.703125 15.304688"/>
    <path d="M 18.242188 0 L 5.757812 0 C 2.929688 0 0.632812 2.300781 0.632812 5.125 L 0.632812 17.609375 C 0.632812 20.4375 2.929688 22.738281 5.757812 22.738281 L 9.472656 22.738281 C 9.707031 22.738281 9.894531 22.546875 9.894531 22.316406 C 9.894531 22.082031 9.707031 21.894531 9.472656 21.894531 L 5.757812 21.894531 C 3.394531 21.894531 1.472656 19.972656 1.472656 17.609375 L 1.472656 5.125 C 1.472656 2.765625 3.394531 0.84375 5.757812 0.84375 L 18.242188 0.84375 C 20.605469 0.84375 22.527344 2.765625 22.527344 5.125 L 22.527344 12.632812 C 22.527344 12.863281 22.714844 13.050781 22.949219 13.050781 C 23.179688 13.050781 23.367188 12.863281 23.367188 12.632812 L 23.367188 5.125 C 23.367188 2.300781 21.070312 0 18.242188 0 Z M 18.242188 0"/>
</svg>

<svg xmlns="http://www.w3.org/2000/svg" width="32" height="32" viewBox="0 0 24 24">
    <path d="M12.844 24h10.105V13.895H12.844zm.84-9.262h8.421v8.418h-3.789V17.86l1.809 1.809.594-.598-2.824-2.824-2.825 2.824.598.598 1.805-1.809v5.297h-3.79zm0 0M12 5.895h7.578a.423.423 0 0 0 0-.844H12a.423.423 0 0 0 0 .844zm0 0M20 11.367a.42.42 0 0 0-.422-.418H12a.422.422 0 0 0-.422.418c0 .235.192.422.422.422h7.578a.42.42 0 0 0 .422-.422zm0 0M9.297 3.05a.42.42 0 0 0-.594.044l-2.629 3.07-1.61-1.207a.422.422 0 0 0-.507.672l1.926 1.445a.428.428 0 0 0 .574-.062L9.344 3.64a.42.42 0 0 0-.047-.59zm0 0M9.297 8.945a.42.42 0 0 0-.594.043l-2.629 3.07-1.61-1.206a.422.422 0 0 0-.507.671l1.926 1.446a.428.428 0 0 0 .574-.063l2.887-3.37a.42.42 0 0 0-.047-.59zm0 0M8.703 15.305l-2.633 3.07-1.605-1.207a.422.422 0 0 0-.508.672l1.926 1.445a.428.428 0 0 0 .574-.066l2.887-3.367a.425.425 0 0 0-.047-.594.425.425 0 0 0-.594.047zm0 0"/>
    <path d="M18.242 0H5.758A5.13 5.13 0 0 0 .633 5.125v12.484a5.131 5.131 0 0 0 5.125 5.13h3.715a.423.423 0 0 0 0-.844H5.758a4.29 4.29 0 0 1-4.285-4.286V5.125A4.289 4.289 0 0 1 5.758.844h12.484a4.289 4.289 0 0 1 4.285 4.281v7.508a.42.42 0 0 0 .84 0V5.125A5.13 5.13 0 0 0 18.242 0zm0 0"/>
</svg>
